X:2572
T:La primavera
T:Op. 8 no. 1 (Spring, from the Four seasons)
C:Antonio Vivaldi
O:Italy
S:Frank Nordberg <frnordbe@online.no> abcusers 2002-7-4
Z:Transcribed by Frank Nordberg - http://www.musicaviva.com
%http://www.musicaviva.com/abc/tunes/vivaldi-antonio/vivaldi-op8-01.abc
%Posted at abcusers March 8th 2001 by Frank Nordberg
M:C
L:1/8
K:E
V:1 %Violino principale
P:1. Allegro
"Giunt e' la Primavera"e|gg gf/e/ b3 b/a/|gg gf/e/ b3 b/a/|ga/b/ ag fdB"_p"e|
gg gf/e/ b3 b/a/|gg gf/e/ b3 b/a/|ga/b/ ag f2 z "_f"e|ba/g/ ab
c'b2e|ba/g/ ab c'b2e|
c'b2a gf/e/ Tf2|e2 z "_p"e ba/g/ ab|c'b2e ba/g/ ab|c'b2 e c'b2 a|
gf/e/ "Il canto de gl' Uccelli"Tf2 "v"Mb2"v" Mb2|("v"Mb2 "v"Mb2 "v"Mb2
"v"Mb2)|(.b.b.b.b) (.b.b.b.b)|(.b.b.b.b .b.b .bc'/d'/)|
(e'/d'/c'/b/ a/g/f/e/) z4|z8|z2 z (.e' .e'.e'.e'.e')|Te3 (.e' .e'.e'.e'.e')|
Te2 z2 "e Festosetti La Salutan gli  Augei con lieto
canto"b2-(b/e'/)(b/c'/)|b2-(b/e'/)(b/c'/) (b/e'/)(b/c'/)
(b/e'/)(b/c'/)|(b/e'/)(b/c'/) (b/e'/)(b/c'/) (.b.e) Tg2|
z2 Tg2 z2 g2|z2 Tg2 (.e'2.e'2)|Te'4 (.e'2.e'2)|Te'4 z2 z "v"e|
ba/g/ ab c'b2e|ba/g/ ab c'b2e|c'b2a gf/e/ Tf2|"Ei fonti  allo Spirar"e
"_p"(G/A/) (B/A/)(B/A/) (G/A/)(G/A/) (B/A/)(B/A/)|
"de' Zeffiretti con dolce mormorio Scorrono intanto"(G/A/)(G/A/)
(B/A/)(B/A/) (G/A/)(G/A/) (B/c/)(B/c/)|(d/e/)(d/e/) (f/e/)(f/e/)
(d/e/)(d/e/) (f/e/)(f/e/)|(d/e/)(d/e/) (f/g/)(f/g/) (a/g/)(a/g/) (f/a/)(g/f/)|
g(f/e/) (d/c/)(B/A/) (G/A/)(G/A/) (B/A/)(B/A/)|(G/A/)(G/A/) (B/A/)(B/A/)
(G/A/)(G/A/) (B/A/)(B/A/)|G2 z g a4|
g4f4|g4a4|g4f2 z "_f"B|fe/d/ ef gf2B|
fe/d/ ef gf2B|gf2e dc/B/ c2|"Vengon' coprendo Lear di nero amanti e
Lampi, e Tuoni ad annuniarla eletti"B/ B,/4B,/4B,/4B,/4B,/4B,/4
B,/4B,/4B,/4B,/4B,/4B,/4B,/4B,/4 B,/4B,/4B,/4B,/4B,/4B,/4B,/4B,/4 B,/4B,/4B,/4B,/4B,/4B,/4B,/4B,/4|
(B/4c/4d/4e/4f/4g/4a/4b/4) z2 (B/4c/4d/4e/4f/4g/4a/4b/4)
z2|B,/4B,/4B,/4B,/4B,/4B,/4B,/4B,/4 B,/4B,/4B,/4B,/4B,/4B,/4B,/4B,/4
A,/4A,/4A,/4A,/4A,/4A,/4A,/4A,/4 A,/4A,/4A,/4A,/4A,/4A,/4A,/4A,/4|
(3b/g/b/(3e'/b/e'/ (3b/g/b/(3e'/b/e'/ (3b/g/b/(3d'/b/d'/
(3b/g/b/(3d'/b/d'/|c'2 z2 (3c'/^a/c'/(3f'/c'/f'/
(3c'/a/c'/(3f'/c'/f'/|(3c'/^a/c'/(3e'/c'/e'/ (3c'/a/c'/(3e'/c'/e'/ d'2 z2|
(3d'/^b/d'/(3g'/d'/g'/ (3d'/b/d'/(3g'/d'/g'/ (3d'/b/d'/(3f'/d'/f'/
(3d'/b/d'/(3f'/d'/f'/|e'2 z2 (3e'/c'/e'/(3g'/e'/g'/ (3e'/c'/e'/(3g'/e'/g'/|
(3d'/b/d'/(3g'/d'/g'/ (3d'/b/d'/(3g'/d'/g'/ (3c'/a/c'/(3f'/c'/f'/
(3c'/a/c'/(3f'/c'/f'/|(3b/g/b/(3e'/b/e'/ (3b/g/b/(3e'/b/e'/
(3a/f/a/(3d'/a/d'/ (3a/f/a/(3d'/a/d'/|
(3g/e/g/(3c'/g/c'/ (3g/e/g/(3c'/g/c'/ (3g/d/g/(3c'/g/c'/
(3g/d/g/(3c'/g/c'/|(3g/d/g/(3^b/g/b/ (3g/d/g/(3b/g/b/ c'2 z
"Tutti"c|gf/e/ fg ag2c|
gf/e/ fg ag2c|ag2f ed/c/Td2|"Indi tacendo questo gl'Avgeletti"(c .g.g.g
.g.g.g.g)|(.a.a.^a.a .b.b.^b.b)|Tc'8-|
(c'/d'/)(c'/d'/) c'2 (c'/d'/)(c'/d'/) Tc'2-|(c'/d'/)(c'/d'/)
(c'/d'/)(c'/d'/) Tc'4-|(c'/4d'/4)(c'/4d'/4)(c'/4d'/4)(c'/4d'/4)
(c'/4d'/4)(c'/4d'/4)(c'/4d'/4)(c'/4d'/4) Tc'4|
"Tutti"gg gf/g/ a3 a/g/|ff fe/f/ g3 g/a/|bb bb/a/ gg gg/a/|bb bb/a/ gg gg/a/|
bb ba/g/ (f/B/)(c/B/) (d/c/)(e/d/)|(f/e/)(g/f/) (a/g/)(b/a/)
(B/A/)(c/B/) (d/c/)(e/d/)|(f/e/)(g/f/) (a/g/)(b/a/) (g/e/)(f/e/)
(g/e/)(f/e/)|(a/e/)(f/e/) (a/e/)(f/e/) (b/e/)(f/e/) (b/e/)(f/e/)|
(c'd')e'2 "_f"(e'/b/)(e'/b/) (c'/b/)(e'/b/)|(c'/b/)(e'/b/)
(c'/b/)(e'/b/) e'e Tf2|"Tutti"e>g ab c'b2e|ba/g/ ab c'b2e|
c'b2a gf/e/ Tf2|e2 z e ba/g/ ab|c'b2e ba/g/ ab|c'b2e c'b2a|gf/e/ Tf2 He4|]
P:2. Largo
M:3/4
L:1/16
z12|"E quindo sul fiorito ameno prato Al caro""_Il capraro che dorme"(g4e4)c4|(g2f2)g8|
(^B4d4)g4|^b2^a2 g8|(f4g4)d4|e6d2c4|
(g4e4)c4|a12-|(a4f4)d4|g12-|
g4e4c4|f12-|f4^B4G4|(e4c4)c'4|
(^^f4d4)g4|^a4 T^^f8|g12|z12|
(g4e4)c4|(g2f2)g8|(^B4d4)g4|e6d2c4|
(g4e4)c4|a2g2 a8-|(a4f4)d4|^b2^a2 b8|
g4^b4g4|c'4c4 z4|(c4f4)a4|(^B4G4)f4|
e4 Td8|c8 z4|c4f4a4|(^B4G4)f4|
e4Td8|c12|z12|Hz12|]
P:3. Danza Pastorale
M:12/8
L:1/8
"Di pastoral Zampogna al Suon festante Danzan Ninfe e Pastor nel tetto
amato"g>ag g2a (a3b2)a|g>ag g2a (a3b2)a|g>ab b>ag Tg3 Tf3|
"Di primavera all' apparir brillante""_p"g>ag g2a (a3b2)a|g>ag g2a
(a3b2)a|g>ab b>ag f3 b2f|
d>cB b>ag Tg2f b2 z| b2 z b2 z b2 z (d>ef)|(f>ga) (a>gf) (f>ed) (d>ef)|
(f>ga) (a>gf) g>ag (c'3|b3 a3) g>ag (c'3|b3 a3) "Solo"gef gfe|bc'b
e'd'c' bgf e3|bc'b e'd'c' bgf e3|
(b/a/g/f/e) =d'c'b c'e'd' c'ba|(c'/b/^a/g/f) e'd'c' d'f'e'
d'c'b|(d'/c'/^b/^a/g) f'e'd' e'(g'/f'/e') g'f'e'|
d'(f'/e'/d') f'e'd' c'(e'/d'/c') e'd'c'|b(d'/c'/b) d'c'b a(c'/b/a)
c'ba|(g/^b/)c'2- c'2a (g/b/)c'2- c'2a|
(gc'=b agf) egc' dg^b|"Tutti"[e3/2c'3/2-][f/c'/-][c'e] e2f (f3
g2)f|(e>fe e2f (f3 g2)f|e>fg g>fe e3 d3|
(g3a3)(f3g3)|(e3f3)d6|"_p"(g3a3)(f3g3)|(e3f3)d6|"_f"(gab) (bag) a6|
(fga) (agf) g6|b3 a3 gfe- e2g|b3 a3 (gfe- e2g)|(c'b^a) (c'ba) b6-|
b3 ^a3 "Solo"b(d'/c'/b) fbf|d(d'/c'/b) fbf d(f/e/d) Bdf|b(B/c/d/e/) fga
([ac-][c-g][c-f]) [ac-][c-g][cf]|[Bg] (E/F/G/A/ Bc=d) ([dF-][F-c][F-B]) ([dF-][F-c][FB])|
[cE-]([A/E/-][B/E/]c/=d/ ef=g) ([gA-][A-f][A-e])
([gA-][A-f][Ae])|[fA-]([B/A/-][c/A/]=d/e/ f^ga) ([aB-][gB-][fB-])
([aB-][gB-][fB])|[B3g3]([b3B3] [a3B3-][g3B3-])|[f3B3-] ([b3B3-][a3B3-][g3B3])|
[f3B3-] ([b3B3-][a3B3-][g3B3-])|[gB-][fB-][Be] (e'3 d'3 c'3)|b3
[e3e'3][d'3e3-][c'3e3-]|[e3b3][a3c'3][g3b3][f3b3]|[gb-][fb-][eb] [e3e'3]
[d'3e3-][e3c'3]|[e3b3]"-"[a3c'3]  "-"[g3b3] "-"[f3b3]|
[gb-][fb-][eb] [gb-][fb-][eb] bgb (b/c'/d')"v"e'|bgb (b/c'/d')"v"e' afa
(a/b/c')d'|afa (a/b/c')d'geg (g/a/b)"v"c'|
geg (g/a/b)"v"c' fdf (f/g/a)"v"b|fdf (f/g/a)"v"b geb (b/c'/d')"v"e'|bgb
(b/c'/d')e' ^afa (a/b/c')b|
^afa (a/b/c')e dBf (f/g/a)b|fdf (f/g/^a)b fcf (f/g/a)b|fcf (f/g/^a)b fcf (f/g/a)f|
fcf (f/g/^a)f b(a/g/f/e/) dfd|BFD B,2 z "Tutti"g>ag (g2.a)|(a3 b2)a g>ag g2a|
(a3 b2)a g>ab b>ag||\
K:Em
^g3 f3 =g>ag g2a|(g3 f3) f>gf f2g|
(f3 e3) f>fe e2f|(e3 ^d3) ^g6|a6 f6|
g6 e6|=f3 ^g3 a6|=g(fe) c'3 fga b3|(ef)g a3 (^dcB) a3|
g(fe) c'6 b3-|b3 a6 "Solo"(Bc^c)|(d^de fga) B3 (Bc^c)|(d^de) (fga) B3 (bag)|
=f3 (agf) e3 gfe|^d'3 e'=d'c' (b3^a3)|(Bb=a) (Bag) (Bgf) Bfe)|(Bba)
(Bag) (Bgf) (Bfe)|
(B/A/Bc) (d/c/de) (f/e/fg) (a/g/a)f|\
K:E
=gfe [B3f3] "Tutti"^g>ag g2a|(a3 b2)a g>ag g2a|
(a3 b2)a g>ab b>ag|f>ed d>ef f>ga a>gf|f>ed d>ef f>ga a>gf|
g3 (c'3 b3 a3)|g>ag (c'3 b3 a3)|g>fe Tf3 e3 ("_p"c'3|b3 a3) g>ag (c'3|b3
a3) g>fe Tf3|He12|]
V:2 %Violino 1
P:1. Allegro
M:C
L:1/8
"_f"e|gg gf/e/ b3 b/a/|gg gf/e/ b3 b/a/|ga/b/ ag fdB"_p"e|
gg gf/e/ b3 b/a/|gg gf/e/ b3 b/a/|ga/b/ ag f2 z"_f"e|ba/g/ ab
c'b2e|ba/g/ ab c'b2e|
c'b2a gf/e/ Tf2|e2 z "_p"e ba/g/ ab|c'b2e ba/g/ ab|c'b2 e c'b2 a|
gf/e/ Tf2 e2 z2|z8|z4 "v"Mb2"v" Mb2|"v"Mb2 "v"Mb2 "v"Mb2 "v"Mb2|
(.b.b.b.b .b.b.b.b)|(.b.b.b.b .b.b .b)c'/d'/|
e'/d'/c'/b/ a/g/f/e/ z2 z (.e'|.e'.e'.e'.e') Te3 (.e'|
.e'.e'.e'.e') Te2 Tg2|z2 Tg2 z2 Tg2|z2 Tg2 b2-(b/e'/)(b/c'/)|
b2-(b/e'/)(b/c'/) (b/e'/)(b/c'/) (b/e'/)(b/c'/)|(b/e'/)(b/c'/)
(b/e'/)(b/c'/) be z2|(.e'2 .e'2) Te'4|(.e'2.e'2) Te'2 z "Tutti"e|
ba/g/ ab c'b2e|ba/g/ ab c'b2e|c'b2a gf/e/ Tf2|"Ei fonti  allo Spirar"e
"_p"(G/A/) (B/A/)(B/A/) (G/A/)(G/A/) (B/A/)(B/A/)|
"de' Zeffiretti con dolce mormorio Scorrono intanto"(G/A/)(G/A/)
(B/A/)(B/A/) (G/A/)(G/A/) (B/c/)(B/c/)|(d/e/)(d/e/) (f/e/)(f/e/)
(d/e/)(d/e/) (f/e/)(f/e/)|(d/e/)(d/e/) (f/g/)(f/g/) (a/g/)(a/g/) (f/a/)(g/f/)|
g(f/e/) (d/c/)(B/A/) (G/A/)(G/A/) (B/A/)(B/A/)|(G/A/)(G/A/) (B/A/)(B/A/)
(G/A/)(G/A/) (B/A/)(B/A/)|G2 z g a4|
g4f4|g4a4|g4f2 z "_f"B|fe/d/ ef gf2B|
fe/d/ ef gf2B|gf2e dc/B/ c2|"Vengon' coprendo Lear di nero amanti e
Lampi, e Tuoni ad annuniarla eletti"B/ B,/4B,/4B,/4B,/4B,/4B,/4
B,/4B,/4B,/4B,/4B,/4B,/4B,/4B,/4 B,/4B,/4B,/4B,/4B,/4B,/4B,/4B,/4 B,/4B,/4B,/4B,/4B,/4B,/4B,/4B,/4|
(B/4c/4d/4e/4f/4g/4a/4b/4) z2 (B/4c/4d/4e/4f/4g/4a/4b/4)
z2|B,/4B,/4B,/4B,/4B,/4B,/4B,/4B,/4 B,/4B,/4B,/4B,/4B,/4B,/4B,/4B,/4
A,/4A,/4A,/4A,/4A,/4A,/4A,/4A,/4 A,/4A,/4A,/4A,/4A,/4A,/4A,/4A,/4|
G,2 z2 z4|NA,4 ^A,2 z2|z4 NB,4|
^B,2 z2 z4|"_dim"NC4 C2 z2|
NB,4 A,2 z2|NG4 F2 z2|
NE2 NC2 NG,2 NG,2|NG,4 C2  z c|gf/e/ fg ag2c|
gf/e/ fg ag2c|ag2f ed/c/Td2|c2 z2 z4|z8|"Solo"z (.c.c.c)
(.c.c.c.d)|(.e.e.^e.e) (.f.f.^^f.f)|
g2-(g/a/)(g/a/) g2-(g/a/)(g/a/)|Tg4-(g/a/)(g/a/)
(g/a/)(g/a/)|Tg4-(g/4a/4)(g/4a/4)(g/4a/4)(g/4a/4) (g/4a/4)(g/4a/4)(g/4a/4)(g/4a/4)|
gg gf/g/ a3 a/g/|ff fe/f/ g3 g/a/|bb bb/a/ gg gg/a/|bb bb/a/ gg gg/a/|
bb ba/g/ f2 z2|z8|z8|z8|
z8|z8|ba/g/ ab c'b2e|ba/g/ ab c'b2e|
c'b2a gf/e/ Tf2|e2 z e ba/g/ ab|c'b2e ba/g/ ab|c'b2e c'b2a|gf/e/ Tf2 He4|]
P:2. Largo
M:3/4
L:1/16
"_Il mormorio di fronde"G>AG>A G>AG>A G>cB>A|G>AG>A G>AG>A G>cB>A|G>AG>A
G>AG>A G>A^B>c|
d>ed>e d>ed>e d>gf>e|d>ed>e d>ed>e d>gf>e|d>ed>e d>ed>e d>ef>d|e>fe>f
e>fe>f e>fe>f|
E>FE>F E>FE>F E>FE>F|e>fe>f e>fe>f e>fe>f|d>ed>e d>ed>e d>ed>e|d>ed>e
d>ed>e d>ed>e|
c>dc>d c>dc>d c>dc>d|c>dc>d c>dc>d c>dc>d|^B>cB>c B>cB>c B>cB>c|e>fe>f
e>fe>f e>fe>f|
d>ed>e d>ed>e d>ed>e|d>ed>e d>ed>e d>ed>c|B>cB>c B>cB>c B>ed>c|(B>cB>c
B>cB>c B>cB>A)|
G>AG>A G>AG>A G>cB>A|G>AG>A G>AG>A G>A^B>c|d>ed>e d>ed>e d>ef>d|e>fe>f
e>fe>f e>fe>f|
e>fe>f e>fe>f e>fe>d|c>dc>d c>dc>d c>de>c|f>gf>g f>gf>g f>gf>e|d>ed>e
d>ed>e d>ef>d|
g>ag>a g>ag>a g>ag>a|g>ag>a g>ag>a g>ag>a|A>BA>B A>BA>B A>BA>c|d>ed>e
d>ed>e d>ed>e|
c>dc>d ^B>cB>c B>cB>d|e>fe>f e>fe>f e>fe>f|A>BA>B A>BA>B A>BA>c|d>ed>e
d>ed>e d>ed>e|
c>dc>d ^B>cB>c B>cB>d|e>fe>f e>fe>f e>fe>f|E>FE>F E>FE>F E>FE>F|HE12|]
P:3. Danza Pastorale
M:12/8
L:1/8
g>ag g2a (a3b2)a|g>ag g2a (a3b2)a|g>ab b>ag Tg3 Tf3|
g>ag g2a (a3b2)a|g>ag g2a (a3b2)a|g>ab b>ag f3 b2f|
d>cB b>ag Tg2f b2 z| b2 z b2 z b2 z d>ef|(f>ga) (a>gf) (f>ed) (d>ef)|
(f>ga) (a>gf) g>ag (c'3|b3 a3) g>ag c'3|b3 a3 g3 z2 z|z12|z12|
z12|z12|z12|
z12|z12|z12|
z12|[e3/2c'3/2-][f/c'/-][c'e] e2f (f3 g2)f|(e>fe e2f (f3 g2)f|e>fg g>fe
e3 d3|
(g3a3)(f3g3)|(e3f3)d6|"_p"(g3a3)(f3g3)|(e3f3)d6|"_f"(gab) bag) a6|
(fga) (agf) g6|b3 a3 gfe- e2g|b3 a3 (gfe- e2g)|(c'b^a) (c' ba) b6-|
b3 ^a3b3 z2 z|z12|z6"Solo"(fed) (fed)|e3 z2 z (BAG) (BAG)|
A3 z2 z (e=dc) (edc)|=d3 z2 z (fe^d) (fed)|(e3g3f3e3)|(d3g3f3e3)|
(d3g3f3d3)|(e3c'3b3a3)|(g3c'3b3a3)|g3 z2 z z6|z2 z (c'3b3a3)|g3 z2 z z6|
z6 bbb bbb|bbb bbb aaa aaa|aaa aaa ggg ggg|
ggg ggg fff fff|fff fff ggg ggg|ggg ggg ^aaa aaa|
^aaa aaa fff fff|bbb bbb bbb bbb|bbb bbb ^aaa aaa|
^aaa aaa b3 z2 z|F3 z2 z"_f"g>ag (g2.a)|(a3 b2)a g>ag g2a|
(a3 b2)a g>ab b>ag||\
K:Em
^g3 f3 =g>ag g2a|(g3 f3) f>gf f2g|
(f3 e3) f>fe e2f|(e3 ^d3) ^g6|a6 f6|
g6 e6|=f3 ^g3 a6|=g(fe) c'3 fga b3|(ef)g a3 (^dcB) a3|
g(fe) c'6 b3-|b3 a6 z2 z|z12|z12|
z12|z12|z12|z12|
z12|\
K:E
z6 ^g>ag g2a|(a3 b2)a g>ag g2a|
(a3 b2)a g>ab b>ag|f>ed d>ef f>ga a>gf|f>ed d>ef f>ga a>gf|
g3 (c'3 b3 a3)|g>ag (c'3 b3 a3)|g>fe Tf3 e3 ("_p"c'3|b3 a3) g>ag (c'3|b3
a3) g>fe Tf3|He12|]
V:3 %Violino 2
P:1. Allegro
M:C
L:1/8
"_f"c|eeee g3 g/f/|eeee g3 g/f/|ef/g/ fe d2 z"_p"c|
eeee g3 g/f/|eeee g3 g/f/|ef/g/ fe d2 z "_f"g|gf/e/ fg ag2g|gf/e/ fg ag2g|
ag2f e2 d2|e2 z "_p"e gf/e/ fg|ag2e gf/e/ fg|ag2 g ag2 f|
e2 d2 e2 z2|z/ a/g/a/ Tg2 z/ a/g/a/ Tg2|z (b/4a/4g/4f/4) e2 z
(b/4a/4g/4f/4) e2|Tg2 z/ a/g/a/ Tg2|
z4 z (b/4a/4g/4f/4) e2|z (b/4a/4g/4f/4) e2 z (b/4a/4g/4f/4) e2|z4
(g>a)(g>a)|(g>a)(g>a) (g/a/) (g/a/)  (g/a/) (g/a/)|
(g/4a/4g/4a/4) (g/4a/4g/4a/4)  (g/4a/4g/4a/4) (g/4a/4g/4a/4) Tg2 z2|Tg2
z2 Tg2 z2|Tg2 z2 Tg2 z2|
Tg2 z2 Tg2 z2|Tg2 z2 e2-(e/b/)(e/f/)|e2-(e/b/)(e/f/) (e/b/)(e/f/)
(e/b/)(e/f/)|(e/b/)(e/f/) (e/b/)(e/f/) e2 z "Tutti"e|
gf/e/ fg ag2g|gf/e/ fg ag2g|ag2f e2 d2|e "_p"(E/F/) (G/F/)(G/F/)
(E/F/)(E/F/) (G/F/)(G/F/)|
(E/F/)(E/F/) (G/F/)(G/F/) (E/F/)(E/F/) (G/A/)(G/A/)|(B/c/)(B//c/)
(d/c/)(d/c/) (B/c/)(B/c/) (d/c/)(d/c/)|(B/c/)(B/c/) (d/e/)(d/e/)
(f/e/)(f/e/) (d/f/)(e/d/)|
e(d/c/) (B/A/)(G/F/) (E/F/)(E/F/) (G/F/)(G/F/)|(E/F/)(E/F/) (G/F/)(G/F/)
(E/F/)(E/F/) (G/F/)(G/F/)|E2 z e f4|
e4d4|e4f4|e4d2 z "_f"d|dc/B/ cd ed2d|
dc/B/ cd ed2d|ed2c B2 ^A2|"Vengon' coprendo Lear di nero amanti e Lampi,
e Tuoni ad annuniarla eletti"B/ B,/4B,/4B,/4B,/4B,/4B,/4
B,/4B,/4B,/4B,/4B,/4B,/4B,/4B,/4 B,/4B,/4B,/4B,/4B,/4B,/4B,/4B,/4 B,/4B,/4B,/4B,/4B,/4B,/4B,/4B,/4|
(B/4c/4d/4e/4f/4g/4a/4b/4) z2 (B/4c/4d/4e/4f/4g/4a/4b/4)
z2|B,/4B,/4B,/4B,/4B,/4B,/4B,/4B,/4 B,/4B,/4B,/4B,/4B,/4B,/4B,/4B,/4
A,/4A,/4A,/4A,/4A,/4A,/4A,/4A,/4 A,/4A,/4A,/4A,/4A,/4A,/4A,/4A,/4|
G,2 z2 z4|NA,4 ^A,2 z2|z4 NB,4|
^B,2 z2 z4|"_dim"NC4 C2 z2|
NB,4 A,2 z2|NG4 F2 z2|
NE2 NC2 NG,2 NG,2|NG,4 C  z  G|ed/c/ de fe2e|
ed/c/ de fe2e|fe2d c2 ^B2|c2 z2 z4|z8|z8|z8|
"_p"e2-(e/f/)(e/f/) e2-(e/f/)(e/f/)|Te4-(e/f/)(e/f/)
(e/f/)(e/f/)|Te4-(e/4f/4)(e/4f/4)(e/4f/4)(e/4f/4) (e/4f/4)(e/4f/4)(e/4f/4)(e/4f/4)|
ee ed/e/ f3 f/e/|dd dc/d/ e3 e/f/|gg gg/f/ ee ee/f/|gg gg/f/ ee ee/f/|
gg gf/e/ d2 z2|z8|z8|z8|
z8|z8|gf/e/ fg ag2g|gf/e/ fg ag2g|
ag2f e2 d2|e2 z g gf/e/ fg|ag2g gf/e/ fg|ag2g ag2f|e2 d2|He4|]
P:2. Largo
M:3/4
L:1/16
"_Il mormorio di fronde"E>FE>F E>FE>F E>AG>F|E>FE>F E>FE>F E>AG>F|E>FE>F
E>FE>F E>FG>A|
^B>cB>c B>cB>c B>ed>c|^B>cB>c B>cB>c B>ed>c|^B>cB>c B>cB>c B>cd>B|c>dc>d
c>dc>d c>dc>d|
C>DC>D C>DC>D C>DC>D|c>dc>d c>dc>d c>dc>d|.F2.F2 f>gf>g f>gf>g|B>cB>c
B>cB>c B>cB>c|
E2E2 f>gf>g f>gf>g|A>BA>B A>BA>B A>BA>B|D2D2 d>ed>e d>ed>F|G>AG>A G>AG>A G>AG>A|
^A2A2 A2A2 B>cB>c|^A2A2 A2A2 A2A2|G>^AG>A G>AG>A G>cB>A|G>^AG>A G>AG>A G>=AG>F|
E>FE>F E>FE>F E>AG>F|E>FE>F E>FE>F E>FG>A|^B>cB>c B>cB>c B>cd>B|c>dc>d
c>dc>d c>dc>d|
c>dc>d c>dc>d c>dc>B|A>BA>B A>BA>B A>Bc>A|d>ed>e d>ed>e d>ed>c|^B>cB>c
B>cB>c B>cd>B|
d2d2 d2d2 d2d2|e>fe>f e>fe>f e>fe>f|F>GF>G F>GF>G F>GF>A|F>GF>G F>GF>G F>GF>A|
G2G2 G2G2 G2^B2|c>dc>d c>dc>d c>dc>d|F>GF>G F>GF>G F>GF>A|F>GF>G F>GF>G F>GF>A|
G2G2 G2G2 G2^B2|c>dc>d c>dc>d c>dc>d|C>DC>D C>DC>D C>DC>D|HC12|]
P:3. Danza Pastorale
M:12/8
L:1/8
"_f"e>fe e2f (f3g2)f|e>fe e2f (f3g2)f|e>fg g>fe Te3 Td3|
"_p"e>fe e2f (f3g2)f|e>fe e2f (f3g2)f|e>fg g>fe d3 "_f""-"b2 z|
b2 z b2 z b2 z b2f| d>cB b>ag Tg2f (B>cd)|(d>ef) (f>ed) (d>cB) (B>cd)|
(d>ef) (f>ed) e>fe (a3|g3 f3) e>fe a3|g3 f3 e3 z2 z|z12|z12|
z12|z12|z12|
z12|z12|z12|
z12|c>dc c2d (d3 e2)d|(c>dc c2d (d3 e2)d|c>de e>dc c3 ^B3|
e6-e3d3-|d3c6^B3|"_p"e6-e3d3-|d3c6^B3|"_f"e6 f6|
d6 e6|f6 (eBG-)G2e|f6 (eBG-)G2e|(^agf) (agf) (fed) (def)|
d3 c3 d3 z2 z|z12|z12|z12|
z12|z12|z12|z12|
z12|z12|z12|z12|z12|z12|
z6"_p" ggg ggg|ggg ggg fff fff|fff fff eee eee|
eee eee ddd ddd|ddd ddd eee eee|eee eee eee eee|
eee eee ddd ddd|ddd ddd ccc ccc|ccc ccc ccc ccc|
ccc ccc d3 z2 z|d3 z2 z"_f"e>fe (e2.f)|(f3 g2)f e>fe e2f|
(f3 g2)f e>fg g>fe||\
K:Em
e3 ^d3 e>fe e2f|(e3 ^d3) =d>ed d2e|
(d3 ^c3) =c>dc c2c|(c3 B3) B6|c12|
B6 g6|c3 d3 (e3^d3)|e3 (gfe) b3 (fed)|a3 edc fe^d f3|
e3 g3 f6|e6 ^d3 z2 z|z12|z12|
z12|z12|z12|z12|
z12|\
K:E
z6 e>fe e2f|(f3 g2)f e>fe e2f|
(f3 g2)f e>fg g>fe|d>cB B>cd d>ef f>ed|d>cB B>cd d>ef f>ed|
e3 (a3 g3 f3)|e>fe (a3 g3 f3)|e3 d3 e3 ("_p"a3|g3 f3) e>fe (a3|g3 f3) e3 d3|He12|]
V:4 %Viola
M:C
L:1/8
P:1. Allegro
"_f"G|BBBB E3G/A/|BBBB E3G/A/|BB cc F2 z G|
BBBB E3G/A/|BBBB E3G/A/|BBcc F2 z "_f"G|E2E2 AE2E|E2E2 AE2E|
AE2d B2B2|G2 z B E2E2|AE2"_p"B E2E2|AE2E AE2d|
B2B2 G2 z2|z8|z8|z8|
z8|z8|z8|z8|
z8|z8|z8|
z8|z8|z8|z4 z2 z "Tutti"B|
E2E2 AE2B|E2E2 AE2B|E2Gd B2B2|G "_p"B,B,B, B,B,B,B,|
B,B,B,B, B,B,B,B,|B, FFF FFFF|FFFF DDDD|
B,B,B,B, B,B,B,B,|B,B,B,B, B,B,B,B,|B,8-|
B,8|B,8|B,4 B,2 z F|B,2B,2 EB,2F|
B,2B,2 EB,2F|EB,E^A F2F2|"Vengon' coprendo Lear di nero amanti e Lampi,
e Tuoni ad annuniarla eletti"B/ B,/4B,/4B,/4B,/4B,/4B,/4
B,/4B,/4B,/4B,/4B,/4B,/4B,/4B,/4 B,/4B,/4B,/4B,/4B,/4B,/4B,/4B,/4 B,/4B,/4B,/4B,/4B,/4B,/4B,/4B,/4|
B, z B, z B, z B, z|B,/4B,/4B,/4B,/4B,/4B,/4B,/4B,/4
B,/4B,/4B,/4B,/4B,/4B,/4B,/4B,/4 A,/4A,/4A,/4A,/4A,/4A,/4A,/4A,/4 A,/4A,/4A,/4A,/4A,/4A,/4A,/4A,/4|
G,2 z2 z4|NA,4 ^A,2 z2|z4 NB,4|
^B,2 z2 z4|"_dim"NC4 C2 z2|
NB,4 A,2 z2|NG4 F2 z2|
NE2 NC2 NG,2 NG,2|NG,4 C2 z G|C2C2 FC2G|
C2C2 FC2G|FCF=c G2G2|E2 z2 z4|z8|z8|z8|
z8|z8|z8|
EEEE CCFA|AAFD B,B,B,B,|B,B,B,B, B,B,B,B,|B,B,B,B, B,B,B,B,|
B,B,B,B, B,2 z2|z8|z8|z8|
z8|z8|E2E2 AE2B|E2E2 AE2B|
AEGd B2B2|G2 z "_p"B E2E2|AE2B E2E2|A">"E2B AEGd|B2B2 HG4|]
P:2. Largo
M:3/4
L:1/16
"_Il cane che grida"z2 .C2 C4 z4|z2 .C2 C4 z4|z2 .C2 C4 z4|
z2 G,2 G,4 z4|z2 G,2 G,4 z4|z2 G,2 G,4 z4|z2 .C2 C4 z4|
z2 C2 C4 z4|z2 C2 C4 z4|z2 B,2 B,4 z4|z2 E2 E4 z4|
z2 A,2 A,4 z4|z2 D2 D4 z4|z2 G,2 G,4 z4|z2 C2 C4 z4|
z2 C2 C4 z4|z2 D2 D4 z4|z2 G,2 G,4 z4|z2 G,2 G,4 z4|
z2 C2 C4 z4|z2 C2 C4 z4|z2 G,2 G,4 z4|z2 C2 C4 z4|
z2 C2 C4 z4|z2 F2 F4 z4|z2 D2 D4 z4|z2 G2 G4 z4|
z2 F2 F4 z4|z2 C2 C4 z4|z2 F2 F4 z4|z2 G,2 G,4 z4|
z2 G,2 G,4 z4|z2 C2 C4 z4|z2 A,2 A,4 z4|z2 G,2 G,4 z4|
z2 G,2 G,4 z4|z2 C2 C4 z4|z2 C2 C4 z4|HC12|]
P:3. Danza Pastorale
M:12/8
L:1/8
B12-|B12-|B12-|
B12-|B12-|B6-B3 F2D|
F2D G>FE E2D F2D|F2D G>FE E2D B3|A12-|
A3 D3 B,3 E3|E6 B3 E3|E6 B,3 z2 z|z12|z12|
z12|z12|z12|
z12|z12|z12|
z12|G12-|G12-|G12|
G3E3 B3G3-|G3A3 G6|G3E3 B3G3-|G3A3 G6|"_f"G3c3 (cBc) (cBA)|
B6-(BAB) (BAG)|D6 B,6|">"D6 B,6|F12|
G3 F3 G3 z2 z|z12|z12|z12|
z12|z12|z12|z12|
z12|z12|z12|z12|z12|z12|
z12|z12|z12|
z12|z12|z6 "_p"FFF FFF|
FFF FFF B,B,B, B,B,B,|B,B,B, B,B,B, FFF FFF|FFF FFF FFF FFF|
FFF FFF B,3 z2 z|B,3 z2 z "_f"B6-|B12-|
B12-||\
K:EM
B6 B3-B2c|F6 A3-A2B|
E6-E3c3|F3-F2B B3-B2.^G|E3-E2A A3-A2F|
D3-D2G G3-G2E|C3B,3 A3F2^D|B,3E3 F3D3|E6 B,3^D3|
B,3E3 A3F3|G3E3 F3 z2 z|z12|z12|
z12|z12|z12|z12|
z12|\
K:E
z6 B6-|B12-|
B12|B6 A6-|A6-A3D3|
B,3E3 E6|B3E3 E6|B3B3 G3"_p"E3|E6 B3E3|E6 B3B3|HG12|]
V:5 %Basso continuo
M:C
L:1/8
P:1. Allegro
e|e2e2e2e2|e2e2e2e2|ee A^A B2 z e|
e2e2e2e2|e2e2e2e2|ee A^A B2 z e|e2e2e2e2|e2e2e2e2|
e2 eB eE bB|E2 z e e2e2|e2e2e2e2|e2e2e2e2|
eE bB E2 z2|z8|z8|z8|
z8|z8|z8|z8|
z8|z8|z8|
z8|z8|z8|z4 z2 z e|
e2e2e2e2|e2e2e2e2|e2 eB eE bB|e"_p"eee eeee|
eeee eeee|BBBB BBBB|BBBB BBBB|
eeee eeee|eeee eeee|(e/B/)(e/B/) (e/B/)(e/B/) (d/B/)(d/B/) (d/B/)(d/B/)|
(e/B/)(e/B/) (e/B/)(e/B/) (f/B/)(f/B/) (f/B/)(f/B/)|(e/B/)(e/B/)
(e/B/)(e/B/) (d/B/)(d/B/) (d/B/)(d/B/)|(e/B/)(e/B/) (e/B/)(e/B/) B2 z B|B2B2B2B2|
B2B2B2B2|B2 Bf bB fF|
"Vengon' coprendo Lear di nero amanti e Lampi, e Tuoni ad annuniarla
eletti"B/4B/4B/4B/4B/4B/4B/4B/4 B/4B/4B/4B/4B/4B/4B/4B/4
B/4B/4B/4B/4B/4B/4B/4B/4 B/4B/4B/4B/4B/4B/4B/4B/4|
">"B z ">"B z ">"B z ">"B z|B/4B/4B/4B/4B/4B/4B/4B/4
B/4B/4B/4B/4B/4B/4B/4B/4 A/4A/4A/4A/4A/4A/4A/4A/4 A/4A/4A/4A/4A/4A/4A/4A/4|
G2 z2 z4|NA4 ^A2 z2|z4 NB4|
^B2 z2 z4|"_d'im"Nc4 c2 z2|
NB4 A2 z2|Ng4 f2 z2|
Ne2 Nc2 NG2 NG2|NG4 c2  z c|c2c2c2c2|
c2c2c2c2|c2 cg c'c gG|"_p""Tasto Solo"c8-|c8-|c8-|c8-|
c8-|c8-|c8|
"Tutti"cccc ffff|BBBB eeeB|eeeB eeeB|eeeB eeeB|
eeeB [B2B2-]B2-|B8-|B4 e2e2|f2f2g2g2|
(a2g)f e2 z2|e2 z2 e2B2|e2e2e2e2|e2e2e2e2|
e2 eB eE bB|E2 z e e2e2|e2e2e2e2|e2e2e2 eB|eE bB HE4|]
P:2. Largo
M:3/4
L:1/16
z12|z12|z12|
z12|z12|z12|z12|
z12|z12|z12|z12|
z12|z12|z12|z12|
z12|z12|z12|z12|
z12|z12|z12|z12|
z12|z12|z12|z12|
z12|z12|z12|z12|
z12|z12|z12|z12|
z12|z12|z12|Hz12|]
P:3. Danza Pastorale
M:12/8
L:1/8
e12-|e12-|e6B6|
"_p"e12-|e12-|e6 "Tasto solo"B6-|
B12-|B12-|B12-|
B6 e6|e12-|e12-|e12-|e12|
"_p"g3c3 a3 z2 z|^a3 f3 b3 z2 z|(^b3g3) c'3 c'3|
^b3 =b3 ^a3 =a3|g3g3 f3f3|c3c3c3c3|
c3f3 g3G3|"_f"c12-|c12-|c6g6|
c6 d3^B3|c3f3 g2f e2d|c6 d3^B3|c3f3 g2f e2d|"_f"c6 (fga) (agf)|
B6 (efg)(gfe)|(Bcd) (dcB) (efg) (gfe)|(Bcd) (dcB) (efg) (gfe)|e6 (dcB) (Bcd)|
e3f3 B3 z2 z|B3 z2 z B3 z2 z|B3 z2 z d3B3|E3 z2 z g3e3|
A3 z2 z c'3 a3|=d3 z2 z ^d3 B3|e6 "Tasto solo"B6-|B12-|
B12|e12-|e12-|e12-|e12-|e12-|
e6 z6|z12|z12|
z12|z12|z12|
z12|z12|z12|
z12|z6 "Tasto solo"e6-|e12-|
(e12||\
K:Em
B6) e3-e2a|b>ab b>ab d3-d2g|
a>ga a>ga a3-a2a|b2B B2b (e'd'e') ^gfe|(a^ga) (cBA) (d'c'd') (fed)|
(gfg) (BAG) (c'bc') (edc)|(a^ga) (bab) (c'bc') (bab)|e3 e'3 ^d'3
=d'3|^c'3 =c'3 b6|
e3 (e'3 ^d'3) =d'3|^c'3 =c3 "Tasto solo"B6-|B12-|B12-|
B12-|B12-|B12-|B12-|
B12|\
K:E
e3 B3 e6-|e12-|
e12|B12-|B12|
e12-|e12|e2E b2B "Tasto solo"e6-|e12-|e6-e2E "Tutti"b2B|HE12|]
W:
W:
W:  From Musica Viva - http://www.musicaviva.com
W:  the Internet center for free sheet music downloads.
